app/clientComponent/section6_contact/images/SEND.svg

<svg width="120" height="33" viewBox="0 0 120 33" fill="none" xmlns="http://www.w3.org/2000/svg">
<path d="M5.7 5.8C5.7 7 6 8.06667 6.6 9C7.23333 9.93333 8 10.75 8.9 11.45C9.8 12.15 11.0167 13 12.55 14C14.2167 15.0667 15.55 16 16.55 16.8C17.55 17.6 18.4 18.5833 19.1 19.75C19.8 20.8833 20.15 22.2 20.15 23.7C20.15 25.4333 19.6833 26.9833 18.75 28.35C17.8167 29.6833 16.5167 30.7333 14.85 31.5C13.2167 32.2333 11.3833 32.6 9.35 32.6C7.85 32.6 6.28333 32.4 4.65 32C3.01667 31.5667 1.91667 31.1 1.35 30.6C1.18333 30.4667 1.05 30.35 0.95 30.25C0.883334 30.1167 0.85 29.9167 0.85 29.65L0.7 21.7V21.65C0.7 21.5167 0.783333 21.45 0.95 21.45C1.11667 21.4167 1.21667 21.4667 1.25 21.6C2.25 23.6333 3.11667 25.2833 3.85 26.55C4.61667 27.8167 5.56667 28.9333 6.7 29.9C7.86667 30.8667 9.18333 31.35 10.65 31.35C11.9833 31.35 13.0833 31 13.95 30.3C14.8167 29.5667 15.25 28.3333 15.25 26.6C15.25 25.1333 14.9167 23.85 14.25 22.75C13.6167 21.65 12.8333 20.7167 11.9 19.95C10.9667 19.1833 9.68333 18.2667 8.05 17.2C6.45 16.1667 5.2 15.2833 4.3 14.55C3.43333 13.8167 2.68333 12.9333 2.05 11.9C1.41667 10.8667 1.1 9.65 1.1 8.25C1.1 6.48333 1.6 5 2.6 3.8C3.63333 2.56667 4.95 1.66667 6.55 1.1C8.15 0.499998 9.83333 0.199998 11.6 0.199998C12.7667 0.199998 13.95 0.316665 15.15 0.55C16.35 0.749999 17.3167 0.999999 18.05 1.3C18.35 1.43333 18.55 1.58333 18.65 1.75C18.75 1.88333 18.8 2.06667 18.8 2.3V9.65C18.8 9.75 18.7167 9.83333 18.55 9.9C18.3833 9.93333 18.2833 9.9 18.25 9.8L17.85 8.85C17.0167 6.75 16.0333 4.96667 14.9 3.5C13.8 2.03333 12.25 1.3 10.25 1.3C8.91667 1.3 7.81667 1.68333 6.95 2.45C6.11667 3.21667 5.7 4.33333 5.7 5.8ZM47.5324 24.05C47.5324 23.9833 47.5991 23.95 47.7324 23.95C47.8324 23.95 47.9158 23.9833 47.9824 24.05C48.0824 24.0833 48.1324 24.1167 48.1324 24.15C47.7991 26.75 47.6324 29.1167 47.6324 31.25C47.6324 31.5167 47.5824 31.7167 47.4824 31.85C47.3824 31.95 47.1824 32 46.8824 32H24.7824C24.6824 32 24.6324 31.9 24.6324 31.7C24.6324 31.5 24.6824 31.4 24.7824 31.4C25.8491 31.4 26.6158 31.3167 27.0824 31.15C27.5824 30.9833 27.9158 30.6667 28.0824 30.2C28.2491 29.7 28.3324 28.95 28.3324 27.95V4.8C28.3324 3.8 28.2491 3.06667 28.0824 2.6C27.9158 2.13333 27.5824 1.81666 27.0824 1.65C26.5824 1.45 25.8158 1.35 24.7824 1.35C24.6824 1.35 24.6324 1.25 24.6324 1.05C24.6324 0.85 24.6824 0.75 24.7824 0.75H45.9824C46.3158 0.75 46.4824 0.899999 46.4824 1.2L46.5824 7.85C46.5824 7.91667 46.4824 7.96667 46.2824 8C46.1158 8.03333 46.0158 8 45.9824 7.9C45.4491 5.96667 44.5491 4.53333 43.2824 3.6C42.0158 2.66667 40.3491 2.2 38.2824 2.2H36.7824C35.7824 2.2 35.0491 2.41667 34.5824 2.85C34.1158 3.28333 33.8824 3.95 33.8824 4.85V15.05H38.0324C39.9658 15.05 41.4491 14.7167 42.4824 14.05C43.5158 13.3833 44.0324 12.45 44.0324 11.25C44.0324 11.15 44.1158 11.1 44.2824 11.1C44.4824 11.1 44.5824 11.15 44.5824 11.25L44.5324 15.75L44.5824 18.15C44.6491 19.2833 44.6824 20.1833 44.6824 20.85C44.6824 20.9167 44.5824 20.95 44.3824 20.95C44.1824 20.95 44.0824 20.9167 44.0824 20.85C44.0824 19.4833 43.5491 18.4167 42.4824 17.65C41.4491 16.85 39.9491 16.45 37.9824 16.45H33.8824V27.75C33.8824 28.7167 34.0658 29.4333 34.4324 29.9C34.7991 30.3667 35.3824 30.6 36.1824 30.6H37.8324C40.4324 30.6 42.5158 30.0667 44.0824 29C45.6491 27.9333 46.7991 26.2833 47.5324 24.05ZM86.4703 0.75C86.537 0.75 86.5703 0.85 86.5703 1.05C86.5703 1.25 86.537 1.35 86.4703 1.35C85.137 1.35 84.087 1.88333 83.3203 2.95C82.5536 3.98333 82.1703 5.38333 82.1703 7.15V32.75C82.1703 32.85 82.087 32.9167 81.9203 32.95C81.787 32.9833 81.687 32.9667 81.6203 32.9L58.1703 6.2V25.65C58.1703 27.4167 58.537 28.8167 59.2703 29.85C60.0036 30.8833 61.0203 31.4 62.3203 31.4C62.387 31.4 62.4203 31.5 62.4203 31.7C62.4203 31.9 62.387 32 62.3203 32C61.387 32 60.6703 31.9833 60.1703 31.95L57.4703 31.9L54.3703 31.95C53.8036 31.9833 52.987 32 51.9203 32C51.8203 32 51.7703 31.9 51.7703 31.7C51.7703 31.5 51.8203 31.4 51.9203 31.4C53.387 31.4 54.537 30.8833 55.3703 29.85C56.237 28.8167 56.6703 27.4167 56.6703 25.65V4.5C55.5703 3.3 54.6203 2.48333 53.8203 2.05C53.0536 1.58333 52.2536 1.35 51.4203 1.35C51.3536 1.35 51.3203 1.25 51.3203 1.05C51.3203 0.85 51.3536 0.75 51.4203 0.75L53.5203 0.799999C53.9536 0.833332 54.587 0.849999 55.4203 0.849999L59.2203 0.799999C59.687 0.766666 60.2536 0.75 60.9203 0.75C61.187 0.75 61.387 0.816666 61.5203 0.949997C61.6536 1.08333 61.887 1.36666 62.2203 1.8C62.787 2.56667 63.187 3.08333 63.4203 3.35L80.7203 23.3V7.15C80.7203 5.35 80.3536 3.93333 79.6203 2.9C78.887 1.86667 77.8703 1.35 76.5703 1.35C76.5036 1.35 76.4703 1.25 76.4703 1.05C76.4703 0.85 76.5036 0.75 76.5703 0.75L78.7203 0.799999C79.787 0.866665 80.687 0.899998 81.4203 0.899998C82.087 0.899998 83.0203 0.866665 84.2203 0.799999L86.4703 0.75ZM103.388 32.2C102.321 32.2 101.055 32.15 99.5879 32.05C99.0546 32.0167 98.3879 31.9833 97.5879 31.95C96.8212 31.9167 95.9546 31.9 94.9879 31.9L91.2879 31.95C90.6212 31.9833 89.7212 32 88.5879 32C88.5212 32 88.4879 31.9 88.4879 31.7C88.4879 31.5 88.5212 31.4 88.5879 31.4C89.6546 31.4 90.4379 31.3167 90.9379 31.15C91.4379 30.9833 91.7712 30.6667 91.9379 30.2C92.1379 29.7 92.2379 28.95 92.2379 27.95V4.8C92.2379 3.8 92.1379 3.06667 91.9379 2.6C91.7712 2.13333 91.4379 1.81666 90.9379 1.65C90.4712 1.45 89.7212 1.35 88.6879 1.35C88.5879 1.35 88.5379 1.25 88.5379 1.05C88.5379 0.85 88.5879 0.75 88.6879 0.75L91.3379 0.799999C92.8712 0.866665 94.0879 0.899998 94.9879 0.899998C96.3546 0.899998 97.7546 0.849999 99.1879 0.75C100.921 0.683332 102.088 0.649998 102.688 0.649998C106.055 0.649998 109.038 1.31667 111.638 2.65C114.271 3.98333 116.305 5.8 117.738 8.1C119.171 10.4 119.888 12.9833 119.888 15.85C119.888 19.0833 119.138 21.95 117.638 24.45C116.171 26.9167 114.171 28.8333 111.638 30.2C109.138 31.5333 106.388 32.2 103.388 32.2ZM102.888 31.05C105.021 31.05 106.905 30.5167 108.538 29.45C110.171 28.35 111.438 26.7333 112.338 24.6C113.271 22.4667 113.738 19.9167 113.738 16.95C113.738 14.1167 113.305 11.55 112.438 9.25C111.571 6.91667 110.338 5.08333 108.738 3.75C107.138 2.41667 105.288 1.75 103.188 1.75C101.121 1.75 99.7046 1.95 98.9379 2.35C98.1712 2.75 97.7879 3.6 97.7879 4.9V27.4C97.7879 28.7333 98.1379 29.6833 98.8379 30.25C99.5379 30.7833 100.888 31.05 102.888 31.05Z" fill="white"/>
</svg>

<svg xmlns="http://www.w3.org/2000/svg" width="120" height="33" fill="none" xmlns:v="https://vecta.io/nano"><path d="M5.7 5.8c0 1.2.3 2.267.9 3.2.633.933 1.4 1.75 2.3 2.45S11.017 13 12.55 14l4 2.8c1 .8 1.85 1.783 2.55 2.95.7 1.133 1.05 2.45 1.05 3.95 0 1.733-.467 3.283-1.4 4.65-.933 1.333-2.233 2.383-3.9 3.15-1.633.733-3.467 1.1-5.5 1.1-1.5 0-3.067-.2-4.7-.6-1.633-.433-2.733-.9-3.3-1.4l-.4-.35c-.067-.133-.1-.333-.1-.6L.7 21.7v-.05c0-.133.083-.2.25-.2.167-.033.267.017.3.15l2.6 4.95c.767 1.267 1.717 2.383 2.85 3.35 1.167.967 2.483 1.45 3.95 1.45 1.333 0 2.433-.35 3.3-1.05.867-.733 1.3-1.967 1.3-3.7 0-1.467-.333-2.75-1-3.85-.633-1.1-1.417-2.033-2.35-2.8s-2.217-1.683-3.85-2.75L4.3 14.55c-.867-.733-1.617-1.617-2.25-2.65S1.1 9.65 1.1 8.25c0-1.767.5-3.25 1.5-4.45 1.033-1.233 2.35-2.133 3.95-2.7C8.15.5 9.833.2 11.6.2c1.167 0 2.35.117 3.55.35 1.2.2 2.167.45 2.9.75.3.133.5.283.6.45.1.133.15.317.15.55v7.35c0 .1-.083.183-.25.25-.167.033-.267 0-.3-.1l-.4-.95c-.833-2.1-1.817-3.883-2.95-5.35-1.1-1.467-2.65-2.2-4.65-2.2-1.333 0-2.433.383-3.3 1.15-.833.767-1.25 1.883-1.25 3.35zm41.832 18.25c0-.067.067-.1.2-.1a.34.34 0 0 1 .25.1c.1.033.15.067.15.1-.333 2.6-.5 4.967-.5 7.1 0 .267-.05.467-.15.6-.1.1-.3.15-.6.15h-22.1c-.1 0-.15-.1-.15-.3s.05-.3.15-.3c1.067 0 1.833-.083 2.3-.25a1.5 1.5 0 0 0 1-.95c.167-.5.25-1.25.25-2.25V4.8c0-1-.083-1.733-.25-2.2a1.5 1.5 0 0 0-1-.95c-.5-.2-1.267-.3-2.3-.3-.1 0-.15-.1-.15-.3s.05-.3.15-.3h21.2c.333 0 .5.15.5.45l.1 6.65c0 .067-.1.117-.3.15-.167.033-.267 0-.3-.1-.533-1.933-1.433-3.367-2.7-4.3s-2.933-1.4-5-1.4h-1.5c-1 0-1.733.217-2.2.65s-.7 1.1-.7 2v10.2h4.15c1.933 0 3.417-.333 4.45-1s1.55-1.6 1.55-2.8c0-.1.083-.15.25-.15.2 0 .3.05.3.15l-.05 4.5.05 2.4.1 2.7c0 .067-.1.1-.3.1s-.3-.033-.3-.1c0-1.367-.533-2.433-1.6-3.2-1.033-.8-2.533-1.2-4.5-1.2h-4.1v11.3c0 .967.183 1.683.55 2.15s.95.7 1.75.7h1.65c2.6 0 4.683-.533 6.25-1.6s2.717-2.717 3.45-4.95zM86.47.75c.067 0 .1.1.1.3s-.033.3-.1.3c-1.333 0-2.383.533-3.15 1.6-.767 1.033-1.15 2.433-1.15 4.2v25.6c0 .1-.083.167-.25.2-.133.033-.233.017-.3-.05L58.17 6.2v19.45c0 1.767.367 3.167 1.1 4.2s1.75 1.55 3.05 1.55c.067 0 .1.1.1.3s-.033.3-.1.3c-.933 0-1.65-.017-2.15-.05l-2.7-.05-3.1.05-2.45.05c-.1 0-.15-.1-.15-.3s.05-.3.15-.3c1.467 0 2.617-.517 3.45-1.55.867-1.033 1.3-2.433 1.3-4.2V4.5c-1.1-1.2-2.05-2.017-2.85-2.45-.767-.467-1.567-.7-2.4-.7-.067 0-.1-.1-.1-.3s.033-.3.1-.3l2.1.05c.433.033 1.067.05 1.9.05l3.8-.05 1.7-.05c.267 0 .467.067.6.2s.367.417.7.85l1.2 1.55 17.3 19.95V7.15c0-1.8-.367-3.217-1.1-4.25s-1.75-1.55-3.05-1.55c-.067 0-.1-.1-.1-.3s.033-.3.1-.3l2.15.05 2.7.1 2.8-.1 2.25-.05zm16.918 31.45a56.95 56.95 0 0 1-3.8-.15l-2-.1-2.6-.05-3.7.05-2.7.05c-.067 0-.1-.1-.1-.3s.033-.3.1-.3c1.067 0 1.85-.083 2.35-.25a1.5 1.5 0 0 0 1-.95c.2-.5.3-1.25.3-2.25V4.8c0-1-.1-1.733-.3-2.2a1.5 1.5 0 0 0-1-.95c-.467-.2-1.217-.3-2.25-.3-.1 0-.15-.1-.15-.3s.05-.3.15-.3l2.65.05 3.65.1 4.2-.15 3.5-.1c3.367 0 6.35.667 8.95 2 2.633 1.333 4.667 3.15 6.1 5.45s2.15 4.883 2.15 7.75c0 3.233-.75 6.1-2.25 8.6-1.467 2.467-3.467 4.383-6 5.75-2.5 1.333-5.25 2-8.25 2zm-.5-1.15c2.133 0 4.017-.533 5.65-1.6 1.633-1.1 2.9-2.717 3.8-4.85.933-2.133 1.4-4.683 1.4-7.65 0-2.833-.433-5.4-1.3-7.7-.867-2.333-2.1-4.167-3.7-5.5a8.41 8.41 0 0 0-5.55-2c-2.067 0-3.483.2-4.25.6s-1.15 1.25-1.15 2.55v22.5c0 1.333.35 2.283 1.05 2.85.7.533 2.05.8 4.05.8z" fill="#fff"/></svg>
